PortableApps/LibreOfficePortable/App/libreoffice/help/media/icon-themes/cmd/sc_pasteunformatted.svg

<svg viewBox="0 0 16 16" xmlns="http://www.w3.org/2000/svg">/&amp;amp;gt;<path d="m2 2c-.554 0-1 .446-1 1v12c0 .554.446 1 1 1h12c.554 0 1-.446 1-1v-12c0-.554-.446-1-1-1h-1v2c0 .554-.446 1-1 1h-8c-.554 0-1-.446-1-1v-2z" fill="#eac282"/><path d="m3 3v1c0 .554.446 1 1 1h8c.554 0 1-.446 1-1v-1z" fill="#fff" fill-opacity=".996169"/><path d="m8 0a2 2 0 0 0 -2 2h-2v1c-.554 0-1 .446-1 1v10c0 .554.446 1 1 1h8c.554 0 1-.446 1-1v-10c0-.554-.446-1-1-1v-1h-2a2 2 0 0 0 -2-2zm0 1a1 1 0 0 1 1 1 1 1 0 0 1 -1 1 1 1 0 0 1 -1-1 1 1 0 0 1 .0058594-.0996094 1 1 0 0 1 .9941406-.9003906z" fill="#808080"/><path d="m4 4v10h8v-10z" fill="#fdf9f3"/><path d="m5 5v1h6v-1zm0 3v1h4v-1zm0 3v1h2v-1z" fill="#808080"/></svg>

<?xml version="1.0" encoding="UTF-8" standalone="no"?>
<svg xmlns="http://www.w3.org/2000/svg" xmlns:sodipodi="http://sodipodi.sourceforge.net/DTD/sodipodi-0.dtd" xmlns:inkscape="http://www.inkscape.org/namespaces/inkscape" viewBox="0 0 16 16" version="1.1">
 <metadata id="metadata12">
  <rdf:RDF>
   <cc:Work>
    <dc:format>image/svg+xml</dc:format>
    <dc:type rdf:resource="http://purl.org/dc/dcmitype/StillImage"/>
   </cc:Work>
  </rdf:RDF>
 </metadata>
 <defs id="defs10"/>
 <sodipodi:namedview pagecolor="#ffffff" bordercolor="#666666" borderopacity="1" objecttolerance="10" gridtolerance="10" guidetolerance="10" inkscape:pageopacity="0" inkscape:pageshadow="2" inkscape:window-width="2560" inkscape:window-height="1319" id="namedview8" showgrid="true" inkscape:zoom="41.7193" inkscape:cx="5.2288649" inkscape:cy="4.6751437" inkscape:window-x="0" inkscape:window-y="30" inkscape:window-maximized="1" inkscape:current-layer="svg6">
  <inkscape:grid type="xygrid" id="grid814"/>
 </sodipodi:namedview>




     /&amp;gt;
   <path d="m2 2c-.554 0-1 .446-1 1v12c0 .554.446 1 1 1h12c.554 0 1-.446 1-1v-12c0-.554-.446-1-1-1h-1v2c0 .554-.446 1-1 1h-8c-.554 0-1-.446-1-1v-2z" fill="#eac282" id="path2"/> <path d="M 3 3 L 3 4 C 3 4.554 3.446 5 4 5 L 12 5 C 12.554 5 13 4.554 13 4 L 13 3 L 3 3 z " id="rect859" opacity="1" stroke-dasharray="none" stroke-opacity="1" fill="#ffffff" stroke="none" stroke-linejoin="round" fill-opacity="0.996169" stroke-linecap="round" stroke-width="2" stroke-miterlimit="4"/> <path d="M 8 0 A 2 2 0 0 0 6 2 L 4 2 L 4 3 C 3.446 3 3 3.446 3 4 L 3 14 C 3 14.554 3.446 15 4 15 L 12 15 C 12.554 15 13 14.554 13 14 L 13 4 C 13 3.446 12.554 3 12 3 L 12 2 L 10 2 A 2 2 0 0 0 8 0 z M 8 1 A 1 1 0 0 1 9 2 A 1 1 0 0 1 8 3 A 1 1 0 0 1 7 2 A 1 1 0 0 1 7.0058594 1.9003906 A 1 1 0 0 1 8 1 z " id="rect816" opacity="1" stroke-dasharray="none" stroke-opacity="1" fill="#808080" stroke="none" stroke-linejoin="round" fill-opacity="1" stroke-linecap="round" stroke-width="2" stroke-miterlimit="4"/> <path d="M 4 4 L 4 14 L 12 14 L 12 4 L 4 4 z " id="rect818" opacity="1" stroke-dasharray="none" stroke-opacity="1" fill="#fdf9f3" stroke="none" stroke-linejoin="round" fill-opacity="1" stroke-linecap="round" stroke-width="2" stroke-miterlimit="4"/> <path d="M 5 5 L 5 6 L 11 6 L 11 5 L 5 5 z M 5 8 L 5 9 L 9 9 L 9 8 L 5 8 z M 5 11 L 5 12 L 7 12 L 7 11 L 5 11 z " id="rect838" opacity="1" stroke-dasharray="none" stroke-opacity="1" fill="#808080" stroke="none" stroke-linejoin="round" fill-opacity="1" stroke-linecap="round" stroke-width="2" stroke-miterlimit="4"/></svg>
